src/assets/icons/delivery-icon.svg

<svg width="20" height="20" viewBox="0 0 20 20" fill="none" xmlns="http://www.w3.org/2000/svg">
<path d="M18.65 12.0625L16.5437 8.05625C16.3625 7.7125 16.0062 7.5 15.6187 7.5H11.25L10.625 13.125L18.75 12.5C18.75 12.3313 18.7187 12.2187 18.65 12.0625Z" fill="#CACED9"/>
<path d="M18.5566 11.8746H14.4379C14.0566 11.8746 13.7504 11.5684 13.7504 11.1871V8.81836C13.7504 8.43711 14.0566 8.13086 14.4379 8.13086H16.5754L18.5566 11.8746Z" fill="#26C9FC"/>
<path d="M18.75 12.5V15.7688C18.75 16.3813 18.25 16.8813 17.6375 16.8813H2.375C1.75625 16.8813 1.25 16.375 1.25 15.7562V12.5L5.9375 10.625L11.25 12.5H18.75Z" fill="#FF822D"/>
<path d="M12.5 16.5625C12.5 17.1427 12.7305 17.6991 13.1407 18.1093C13.5509 18.5195 14.1073 18.75 14.6875 18.75C15.2677 18.75 15.8241 18.5195 16.2343 18.1093C16.6445 17.6991 16.875 17.1427 16.875 16.5625C16.875 15.9823 16.6445 15.4259 16.2343 15.0157C15.8241 14.6055 15.2677 14.375 14.6875 14.375C14.1073 14.375 13.5509 14.6055 13.1407 15.0157C12.7305 15.4259 12.5 15.9823 12.5 16.5625ZM3.125 16.5625C3.125 17.1427 3.35547 17.6991 3.7657 18.1093C4.17594 18.5195 4.73234 18.75 5.3125 18.75C5.89266 18.75 6.44906 18.5195 6.8593 18.1093C7.26953 17.6991 7.5 17.1427 7.5 16.5625C7.5 15.9823 7.26953 15.4259 6.8593 15.0157C6.44906 14.6055 5.89266 14.375 5.3125 14.375C4.73234 14.375 4.17594 14.6055 3.7657 15.0157C3.35547 15.4259 3.125 15.9823 3.125 16.5625Z" fill="#321B41"/>
<path d="M13.75 16.5625C13.75 16.8111 13.8488 17.0496 14.0246 17.2254C14.2004 17.4012 14.4389 17.5 14.6875 17.5C14.9361 17.5 15.1746 17.4012 15.3504 17.2254C15.5262 17.0496 15.625 16.8111 15.625 16.5625C15.625 16.3139 15.5262 16.0754 15.3504 15.8996C15.1746 15.7238 14.9361 15.625 14.6875 15.625C14.4389 15.625 14.2004 15.7238 14.0246 15.8996C13.8488 16.0754 13.75 16.3139 13.75 16.5625ZM4.375 16.5625C4.375 16.6856 4.39925 16.8075 4.44636 16.9213C4.49348 17.035 4.56253 17.1384 4.64959 17.2254C4.73664 17.3125 4.83999 17.3815 4.95373 17.4286C5.06748 17.4758 5.18939 17.5 5.3125 17.5C5.43561 17.5 5.55752 17.4758 5.67127 17.4286C5.78501 17.3815 5.88836 17.3125 5.97541 17.2254C6.06247 17.1384 6.13152 17.035 6.17864 16.9213C6.22575 16.8075 6.25 16.6856 6.25 16.5625C6.25 16.3139 6.15123 16.0754 5.97541 15.8996C5.7996 15.7238 5.56114 15.625 5.3125 15.625C5.06386 15.625 4.8254 15.7238 4.64959 15.8996C4.47377 16.0754 4.375 16.3139 4.375 16.5625Z" fill="#F4F4F4"/>
<path d="M1.24994 13.75H1.56244C2.09369 13.75 2.52494 14.1937 2.49994 14.7312C2.47494 15.2375 2.03744 15.625 1.53119 15.625H1.24994V13.75Z" fill="#CA0B4A"/>
<path d="M9.375 4.375H3.125C2.0875 4.375 1.25 5.2125 1.25 6.25V12.5H11.25V6.25C11.25 5.2125 10.4125 4.375 9.375 4.375ZM18.75 15.625H18.1812C17.8062 15.625 17.5 15.3188 17.5 14.9438V13.8062C17.5 13.4312 17.8062 13.125 18.1812 13.125H18.75V15.625Z" fill="#8C62A0"/>
</svg>

<svg xmlns="http://www.w3.org/2000/svg" width="20" height="20" fill="none"><path fill="#CACED9" d="m18.65 12.063-2.106-4.007a1.04 1.04 0 0 0-.925-.556H11.25l-.625 5.625 8.125-.625a1 1 0 0 0-.1-.437"/><path fill="#26C9FC" d="M18.557 11.875h-4.12a.685.685 0 0 1-.687-.688V8.818c0-.38.307-.687.688-.687h2.137z"/><path fill="#FF822D" d="M18.75 12.5v3.269c0 .612-.5 1.112-1.113 1.112H2.375a1.13 1.13 0 0 1-1.125-1.125V12.5l4.688-1.875L11.25 12.5z"/><path fill="#321B41" d="M12.5 16.563a2.188 2.188 0 1 0 4.375 0 2.188 2.188 0 0 0-4.375 0m-9.375 0a2.187 2.187 0 1 0 4.375 0 2.187 2.187 0 0 0-4.375 0"/><path fill="#F4F4F4" d="M13.75 16.563a.938.938 0 1 0 1.875 0 .938.938 0 0 0-1.875 0m-9.375 0a.938.938 0 1 0 1.876 0 .938.938 0 0 0-1.876 0"/><path fill="#CA0B4A" d="M1.25 13.75h.312c.532 0 .963.444.938.981-.025.507-.463.894-.969.894H1.25z"/><path fill="#8C62A0" d="M9.375 4.375h-6.25A1.87 1.87 0 0 0 1.25 6.25v6.25h10V6.25a1.87 1.87 0 0 0-1.875-1.875m9.375 11.25h-.569a.683.683 0 0 1-.681-.681v-1.138c0-.375.306-.681.681-.681h.569z"/></svg>
